images/guest_house.svg

<?xml version="1.0" encoding="UTF-8" standalone="no"?>
<svg xmlns:dc="http://purl.org/dc/elements/1.1/" xmlns:cc="http://creativecommons.org/ns#" xmlns:rdf="http://www.w3.org/1999/02/22-rdf-syntax-ns#" xmlns:svg="http://www.w3.org/2000/svg" xmlns="http://www.w3.org/2000/svg" xmlns:sodipodi="http://sodipodi.sourceforge.net/DTD/sodipodi-0.dtd" xmlns:inkscape="http://www.inkscape.org/namespaces/inkscape" viewBox="0 0 14 14" height="14" width="14" id="svg2" version="1.1" sodipodi:docname="guest_house.svg" inkscape:version="0.92.3 (2405546, 2018-03-11)">
  <sodipodi:namedview pagecolor="#ffffff" bordercolor="#666666" borderopacity="1" objecttolerance="10" gridtolerance="10" guidetolerance="10" inkscape:pageopacity="0" inkscape:pageshadow="2" inkscape:window-width="1881" inkscape:window-height="1051" id="namedview820" showgrid="false" inkscape:zoom="21.844549" inkscape:cx="8.416213" inkscape:cy="8.1780616" inkscape:window-x="0" inkscape:window-y="0" inkscape:window-maximized="1" inkscape:current-layer="svg2" inkscape:pagecheckerboard="true" />
  <metadata id="metadata8">
    <rdf:RDF>
      <cc:Work rdf:about="">
        <dc:format>image/svg+xml</dc:format>
        <dc:type rdf:resource="http://purl.org/dc/dcmitype/StillImage" />
        <dc:title />
      </cc:Work>
    </rdf:RDF>
  </metadata>
  <defs id="defs6">
    <inkscape:perspective sodipodi:type="inkscape:persp3d" inkscape:vp_x="0 : 7 : 1" inkscape:vp_y="0 : 1000 : 0" inkscape:vp_z="14 : 7 : 1" inkscape:persp3d-origin="7 : 4.6666667 : 1" id="perspective822" />
  </defs>
  <path id="outline" d="M 7,0.85351562 L 1,5 H 3 V 7.0917969 C 2.4186545,7.2983894 2,7.8477855 2,8.5 C 2,9.1522145 2.4186545,9.7016107 3,9.9082031 V 11 H 1 V 7 V 6.5 C 1,6.223 0.777,6 0.5,6 C 0.223,6 0,6.223 0,6.5 V 7 V 11 V 12 V 12.5 V 14 H 1 V 12.5 V 12 H 3 V 13 H 6 V 12 H 8 V 13 H 11 V 12 H 13 V 13.5 V 14 H 13.5 H 14 V 13.5 V 12 V 11 V 9 V 8.5 C 14,8.223 13.777,8 13.5,8 C 13.223,8 13,8.223 13,8.5 V 9 V 11 H 11 V 10 H 12 C 12,9.3540247 11.56595,8.7123575 11,8.3359375 V 5 H 13 Z M 6,10 H 8 V 11 H 6 Z" style="opacity:0.5;fill:none;fill-opacity:0;stroke:#ffffff;stroke-width:3;stroke-linecap:round;stroke-linejoin:round;stroke-miterlimit:4;stroke-dasharray:none;stroke-opacity:1" inkscape:connector-curvature="0" />
  <path style="opacity:1;fill:#808080;fill-opacity:1;stroke-width:0.01526906" d="M 6.9999997,0.85331316 1,5 h 2 v 8 H 6 V 8 h 2 v 5 h 3 V 5 h 2 z" id="polygon4-1" />
  <path id="hotel" d="m 0.5,6.0000004 c -0.277,0 -0.5,0.223 -0.5,0.5 v 0.5 V 11 12 12.5 14 H 1 V 12.5 12 H 13 V 13.5 14 H 13.5 14 V 13.5 12 11 9.0000004 v -0.5 c 0,-0.277 -0.223,-0.5 -0.5,-0.5 -0.277,0 -0.5,0.223 -0.5,0.5 v 0.5 V 11 H 1 v -3.9999996 -0.5 c 0,-0.277 -0.223,-0.5 -0.5,-0.5 z m 3,1 c -0.828427,0 -1.5,0.671573 -1.5,1.5 C 2,9.3284274 2.671573,10 3.5,10 4.328427,10 5,9.3284274 5,8.5000004 c 0,-0.828427 -0.671573,-1.5 -1.5,-1.5 z m 2.5,1 V 10 h 6 C 12,9.0000004 10.963825,8.0000004 10,8.0000004 Z" style="stroke:none" />
</svg>

<svg xmlns="http://www.w3.org/2000/svg" height="14" width="14">
    <path d="M7 .854L1 5h2v2.092c-.581.206-1 .756-1 1.408 0 .652.419 1.202 1 1.408V11H1V6.5a.499.499 0 10-1 0V14h1v-2h2v1h3v-1h2v1h3v-1h2v2h1V8.5a.499.499 0 10-1 0V11h-2v-1h1c0-.646-.434-1.288-1-1.664V5h2zM6 10h2v1H6z" opacity=".5" fill="none" stroke="#fff" stroke-width="3" stroke-linecap="round" stroke-linejoin="round"/>
    <path d="M7 .853L1 5h2v8h3V8h2v5h3V5h2z" fill="gray"/>
    <path d="M.5 6c-.277 0-.5.223-.5.5V14h1v-2h12v2h1V8.5a.499.499 0 10-1 0V11H1V6.5C1 6.223.777 6 .5 6zm3 1a1.5 1.5 0 100 3 1.5 1.5 0 000-3zM6 8v2h6c0-1-1.036-2-2-2z"/>
</svg>
